src/assets/icons/type-send.svg

<?xml version="1.0" encoding="UTF-8"?>
<svg width="24px" height="24px" viewBox="0 0 24 24" version="1.1" xmlns="http://www.w3.org/2000/svg" xmlns:xlink="http://www.w3.org/1999/xlink">
    <title>矩形</title>
    <g id="扩展程序" stroke="none" stroke-width="1" fill="none" fill-rule="evenodd">
        <g id="代币详情" transform="translate(-40.000000, -602.000000)" fill="#3BC164">
            <g id="编组-2备份-2" transform="translate(20.000000, 574.000000)">
                <g id="编组" transform="translate(20.000000, 28.000000)">
                    <rect id="矩形" opacity="0.200000003" x="2" y="2" width="20" height="20" rx="3"></rect>
                    <path d="M9,15 L15,15 C15.5522847,15 16,15.4477153 16,16 C16,16.5522847 15.5522847,17 15,17 L9,17 C8.44771525,17 8,16.5522847 8,16 C8,15.4477153 8.44771525,15 9,15 Z M12.288223,7.04220153 L12.3107486,7.04922347 C12.3196408,7.0521279 12.3284782,7.0551536 12.3372588,7.05829863 L12.3521979,7.06404341 C12.3619871,7.06772067 12.3717218,7.07155176 12.3813978,7.0755356 C12.3911104,7.07949024 12.4004502,7.08352813 12.409753,7.08771992 C12.4197087,7.09200721 12.4297885,7.09674338 12.4397747,7.10164115 L12.4543374,7.10903859 C12.4624488,7.1131654 12.4705086,7.1174051 12.478514,7.121757 L12.4872797,7.12675152 C12.49153,7.12912486 12.4957702,7.13153252 12.5,7.1339746 L15.9641016,9.1339746 C16.4423942,9.41011697 16.6062694,10.0217074 16.330127,10.5 C16.0539846,10.9782926 15.4423942,11.1421678 14.9641016,10.8660254 L12.9997314,9.73187025 L13,13 C13,13.5522847 12.5522847,14 12,14 C11.4477153,14 11,13.5522847 11,13 L10.9997314,9.73187025 L9.03589838,10.8660254 C8.55760576,11.1421678 7.94601536,10.9782926 7.66987298,10.5 C7.39373061,10.0217074 7.55760576,9.41011697 8.03589838,9.1339746 L11.5,7.1339746 L11.5123318,7.12679557 C11.5230174,7.12084114 11.5338027,7.11508824 11.5446812,7.10953856 C11.5498818,7.1067701 11.555041,7.10418385 11.5602253,7.10164115 L11.5847314,7.09087025 L11.6043607,7.08149042 C11.6115623,7.07837778 11.618785,7.07535639 11.6260274,7.07242587 C11.6323975,7.06994717 11.6390991,7.06733116 11.6458266,7.06478788 C11.6511722,7.06250328 11.6569443,7.06037495 11.6627412,7.05829863 L11.6886964,7.04947649 C11.7026573,7.04488849 11.7166743,7.04062493 11.7307377,7.03668315 C11.7370273,7.03517656 11.7430616,7.03355214 11.7491106,7.03198404 C11.7562888,7.02987922 11.7634839,7.02810579 11.7707092,7.02641071 L11.7909572,7.02181766 C11.8073532,7.0183101 11.8237922,7.015228 11.8402589,7.01256726 C11.8483477,7.01149706 11.85632,7.01030152 11.8643078,7.00920187 C11.8806092,7.00691426 11.8972082,7.00507792 11.9139245,7.00365281 L11.9139517,7.00362238 L11.9316766,7.00211108 C11.9336697,7.00197611 11.9356627,7.00184717 11.9376557,7.00172424 C11.9538736,7.00079672 11.970897,7.00013904 11.9879478,6.99991742 L11.990443,6.99987025 L12,7 L12,7 L12.0123233,6.99992098 C12.0283357,7.00013344 12.0443238,7.00073047 12.0602737,7.00170828 C12.0699357,7.00217449 12.0795936,7.00289121 12.0892495,7.00374996 C12.0904707,7.00401755 12.0914754,7.00411019 12.09248,7.00420435 L12.1166211,7.00672773 L12.1166211,7.00672773 L12.13355,7.00890931 C12.1425656,7.01013068 12.1515617,7.01147417 12.1605356,7.01293907 C12.176322,7.01524942 12.1927038,7.01832229 12.2090428,7.02181766 C12.2162346,7.02341715 12.222775,7.02488207 12.2292908,7.02641071 L12.2548931,7.03303071 C12.2575622,7.03373434 12.2602283,7.03444896 12.2628915,7.03517454 C12.2715993,7.03730215 12.27992,7.0396952 12.288223,7.04220153 Z" id="形状结合"></path>
                </g>
            </g>
        </g>
    </g>
</svg>

<svg width="24" height="24" xmlns="http://www.w3.org/2000/svg"><g fill="#3bc164" fill-rule="evenodd"><rect opacity=".2" x="2" y="2" width="20" height="20" rx="3"/><path d="M9 15h6a1 1 0 0 1 0 2H9a1 1 0 0 1 0-2zm3.288-7.958.023.007a.992.992 0 0 1 .026.01l.015.005a1.005 1.005 0 0 1 .088.038l.014.007a1 1 0 0 1 .025.013l.008.005.013.007 3.464 2a1 1 0 0 1-1 1.732L13 9.732V13a1 1 0 0 1-2 0V9.732l-1.964 1.134a1 1 0 1 1-1-1.732l3.464-2 .012-.007a1 1 0 0 1 .048-.025l.025-.011.02-.01a1 1 0 0 1 .021-.009l.02-.007a.307.307 0 0 1 .017-.007l.026-.009a.993.993 0 0 1 .042-.012l.018-.005a.406.406 0 0 1 .022-.006l.02-.004a.992.992 0 0 1 .05-.01l.023-.003a.92.92 0 0 1 .05-.005l.018-.002A.997.997 0 0 1 11.988 7h.024a1 1 0 0 1 .077.004h.003l.025.003.017.002a1.005 1.005 0 0 1 .095.017l.026.007a1.006 1.006 0 0 1 .033.01z"/></g></svg>
